X:252
T:Brandon Quick Step  
O:No 252 Wm Clarke of Feltwell 
N:Pause at end of A omitted. 
N:Repeat marks at beginning of B omitted as there are no corresponding repeat marks at the end of the section.
M:6/8
L:1/8
K:C
G| c2 c cBc| g2 f d2 f| egc cBc| d2 B GAB| c2 c cBc| g2 f d2 f| egc dcd| c2 c c2:!fine!|
G| G3 GEG| c3 cBc| d2 d dcd | e3 c2 G| G3 GEG| c3 cBc | ded cBA | G2 G GAB!D.C.!||

